Newaita-dark/apps/48/openra-d2k.svg

<svg height="48pt" viewBox="0 0 48 48" width="48pt" xmlns="http://www.w3.org/2000/svg" xmlns:xlink="http://www.w3.org/1999/xlink"><linearGradient id="a"><stop offset="0" stop-opacity=".313725"/><stop offset=".222222" stop-opacity=".27451"/><stop offset="1" stop-opacity="0"/></linearGradient><radialGradient id="b" cx="450.90894" cy="189.57936" gradientTransform="matrix(.00000026 -.117199 -.210958 -.00000015 66.784728 95.392998)" gradientUnits="userSpaceOnUse" r="21.166656" xlink:href="#a"/><radialGradient id="c" cx="450.90894" cy="189.57936" gradientTransform="matrix(-.00000026 .117199 .210958 .00000015 -19.155181 -11.291222)" gradientUnits="userSpaceOnUse" r="21.166656" xlink:href="#a"/><radialGradient id="d" cx="450.90894" cy="189.57936" gradientTransform="matrix(-.00000026 -.117199 .210958 -.00000015 -19.155181 95.392998)" gradientUnits="userSpaceOnUse" r="21.166656" xlink:href="#a"/><radialGradient id="e" cx="450.90894" cy="189.57936" gradientTransform="matrix(.00000026 .117199 -.210958 .00000015 66.784725 -11.291223)" gradientUnits="userSpaceOnUse" r="21.166656" xlink:href="#a"/><linearGradient id="f" gradientTransform="matrix(.0200401 0 0 .093759 18.698079 20.158175)" gradientUnits="userSpaceOnUse" x1="255.32306" x2="255.32304" y1="233.5" y2="254.66666"><stop offset="0" stop-opacity=".27451"/><stop offset="1" stop-opacity="0"/></linearGradient><linearGradient id="g" gradientUnits="userSpaceOnUse" x1="9.9228385" x2="9.9228385" y1="17.24386418747" y2="7.321037"><stop offset="0" stop-color="#ff7043"/><stop offset="1" stop-color="#ffab91"/></linearGradient><linearGradient id="h" gradientUnits="userSpaceOnUse" x1="23.814785" x2="23.814785" y1="42.0509015" y2="4.34415668747"><stop offset="0" stop-color="#8d6e63"/><stop offset="1" stop-color="#a1887f"/></linearGradient><linearGradient id="i" gradientUnits="userSpaceOnUse" x1="31.7530475" x2="31.7530475" y1="36.09722618747" y2="26.174399"><stop offset="0" stop-color="#78909c"/><stop offset="1" stop-color="#b0bec5"/></linearGradient><path d="m27.289062 42.050781h3.96875v-1.984375h-3.96875zm0 0" fill="url(#b)"/><path d="m20.339844 42.050781h-3.96875v1.984375h3.96875zm0 0" fill="url(#c)"/><path d="m20.339844 42.050781h-3.96875v-1.984375h3.96875zm0 0" fill="url(#d)"/><path d="m27.289062 42.050781h3.96875v1.984375h-3.96875zm0 0" fill="url(#e)"/><path d="m20.339844 41.554688h6.949218v2.480468h-6.949218zm0 0" fill="url(#f)"/><path d="m9.921875 7.320312c2.742187 0 4.960937 2.222657 4.960937 4.960938 0 2.742188-2.21875 4.960938-4.960937 4.960938-2.738281 0-4.960937-2.21875-4.960937-4.960938 0-2.738281 2.222656-4.960938 4.960937-4.960938zm0 0" fill="url(#g)"/><path d="m11.359375 9.363281c-.492187 0-.898437.132813-1.167969.488281-1.507812 2.015626-2.488281.226563-3.992187.777344-.394531.074219-.699219.042969-.933594-.0625-.195313.535156-.304687 1.113282-.304687 1.714844 0 .078125.003906.15625.007812.234375.351562.238281.660156.476563.816406.59375 1.65625.828125 2.429688.066406 4.136719-.828125 1.15625-.503906 3.144531-.40625 4.941406-.433594-.046875-.566406-.191406-1.105468-.414062-1.601562-.046875-.050782-.09375-.101563-.140625-.152344-1.0625-.355469-2.128906-.730469-2.949219-.730469zm0 0" fill="#fff" fill-opacity=".313725"/><path d="m9.921875 7.179688c-2.824219 0-5.101563 2.277343-5.101563 5.101562s2.277344 5.101562 5.101563 5.101562 5.101563-2.277343 5.101563-5.101562-2.277344-5.101562-5.101563-5.101562zm0 .28125c2.675781 0 4.820313 2.148437 4.820313 4.820312 0 2.675781-2.144532 4.820312-4.820313 4.820312-2.671875 0-4.820313-2.144531-4.820313-4.820312 0-2.671875 2.148438-4.820312 4.820313-4.820312zm0 0" fill="#212121"/><path d="m23.816406 4.34375c10.410156 0 18.851563 8.441406 18.851563 18.855469 0 10.410156-8.441407 18.851562-18.851563 18.851562-10.414062 0-18.855468-8.441406-18.855468-18.851562 0-10.414063 8.441406-18.855469 18.855468-18.855469zm0 0" fill="url(#h)"/><g fill="#fff"><path d="m13.296875 7.53125c-2.363281 1.582031-4.34375 3.691406-5.78125 6.15625 1.222656.664062 2.40625 1.164062 3.398437.578125 1.265626-.6875 4.917969 2.222656 5.953126 2.976563 3.972656 1.984374 5.820312.164062 9.925781-1.984376 3.152343-1.375 8.871093-.878906 13.585937-1.09375-.828125-1.527343-1.863281-2.921874-3.0625-4.152343-4.085937-1.375-8.171875-2.851563-9.875-.585938-3.625 4.839844-5.972656.542969-9.582031 1.863281-3.140625.609376-3.800781-1.640624-4.5625-3.757812zm0 0" fill-opacity=".313725"/><path d="m41.015625 30.949219c-1.984375.917969-3.429687 1.320312-5.292969 1.179687-2.15625.546875-.203125 2.984375-1.984375 2.976563-2.199219 0-9.921875 4.960937-14.886719 1.984375-2.085937-.421875-5.78125-1.027344-8.839843-1.023438 3.4375 3.6875 8.34375 5.984375 13.804687 5.984375 2.445313 0 4.78125-.460937 6.925782-1.304687 4.613281-2.605469 8.683593-6.253906 10.273437-9.796875zm0 0" fill-opacity=".313725"/><path d="m9.957031 17.128906c-.308593 0-.648437.035156-1.027343.113282-.660157.386718-.246094 1.488281-.992188 1.984374-.3125.519532-1.34375-.324218-2.28125-1.140624-.453125 1.625-.695312 3.339843-.695312 5.113281 0 .71875.039062 1.429687.117187 2.128906 2.011719.78125 4.1875 2.8125 5.835937 1.839844 1.265626-.691407 4.917969 2.21875 5.953126 2.976562 3.972656 1.984375 5.820312.160157 9.925781-1.984375 3.59375-1.570312 10.535156-.707031 15.511719-1.238281.238281-1.203125.363281-2.449219.363281-3.722656 0-1.394531-.148438-2.75-.433594-4.054688-4.894531-.871093-8.21875 1.042969-10.480469 4.054688-3.625 4.839843-10.285156-.332031-13.894531.992187-5.660156 1.09375-3.265625-7.078125-7.902344-7.0625zm0 0" fill-opacity=".313725"/><path d="m23.816406 4.34375c-10.445312 0-18.855468 8.410156-18.855468 18.855469 0 .121093.003906.242187.003906.363281.195312-10.277344 8.527344-18.488281 18.851562-18.488281 10.320313 0 18.65625 8.210937 18.847656 18.488281.003907-.121094.003907-.242188.003907-.363281 0-10.445313-8.410157-18.855469-18.851563-18.855469zm0 0" fill-opacity=".392157"/></g><path d="m23.816406 42.050781c-10.445312 0-18.855468-8.410156-18.855468-18.851562 0-.125.003906-.246094.003906-.367188.195312 10.277344 8.527344 18.488281 18.851562 18.488281 10.320313 0 18.65625-8.210937 18.847656-18.488281.003907.121094.003907.242188.003907.367188 0 10.441406-8.410157 18.851562-18.851563 18.851562zm0 0" fill-opacity=".235294"/><path d="m23.816406 4.203125c-10.523437 0-18.996094 8.472656-18.996094 18.996094 0 10.519531 8.472657 18.992187 18.996094 18.992187 10.519532 0 18.992188-8.472656 18.992188-18.992187 0-10.523438-8.472656-18.996094-18.992188-18.996094zm0 .28125c10.367188 0 18.710938 8.34375 18.710938 18.714844 0 10.367187-8.34375 18.710937-18.710938 18.710937-10.371094 0-18.714844-8.34375-18.714844-18.710937 0-10.371094 8.34375-18.714844 18.714844-18.714844zm0 0" fill="#212121"/><path d="m31.753906 26.175781c2.738282 0 4.960938 2.21875 4.960938 4.960938 0 2.738281-2.222656 4.960937-4.960938 4.960937-2.742187 0-4.960937-2.222656-4.960937-4.960937 0-2.742188 2.21875-4.960938 4.960937-4.960938zm0 0" fill="url(#i)"/><path d="m33.1875 28.214844c-.492188 0-.898438.136718-1.164062.488281-1.511719 2.019531-2.488282.226563-3.992188.777344-.398438.078125-.699219.046875-.9375-.0625-.195312.535156-.300781 1.113281-.300781 1.71875 0 .078125 0 .15625.003906.230469.351563.242187.660156.480468.820313.597656 1.652343.824218 2.425781.066406 4.136718-.828125 1.15625-.507813 3.140625-.40625 4.941406-.4375-.050781-.566407-.191406-1.105469-.414062-1.601563-.046875-.050781-.09375-.101562-.140625-.148437-1.066406-.359375-2.128906-.734375-2.953125-.734375zm0 0" fill="#fff" fill-opacity=".313725"/><path d="m31.753906 26.175781c-2.75 0-4.960937 2.210938-4.960937 4.960938 0 .0625 0 .125.003906.183593.097656-2.660156 2.269531-4.773437 4.957031-4.773437 2.683594 0 4.859375 2.113281 4.957032 4.773437.003906-.058593.003906-.121093.003906-.183593 0-2.75-2.214844-4.960938-4.960938-4.960938zm0 0" fill="#fff" fill-opacity=".392157"/><path d="m31.753906 26.035156c-2.824218 0-5.101562 2.277344-5.101562 5.101563s2.277344 5.101562 5.101562 5.101562c2.824219 0 5.101563-2.277343 5.101563-5.101562s-2.277344-5.101563-5.101563-5.101563zm0 .28125c2.671875 0 4.820313 2.144532 4.820313 4.820313 0 2.671875-2.148438 4.820312-4.820313 4.820312-2.675781 0-4.820312-2.148437-4.820312-4.820312 0-2.675781 2.144531-4.820313 4.820312-4.820313zm0 0" fill="#212121"/><path d="m26.804688 31.507812c-.007813.121094-.011719.246094-.011719.371094 0 2.75 2.210937 4.960938 4.960937 4.960938 2.746094 0 4.960938-2.210938 4.960938-4.960938 0-.125-.003906-.25-.015625-.371094-.1875 2.574219-2.324219 4.589844-4.945313 4.589844-2.625 0-4.757812-2.015625-4.949218-4.589844zm0 0" fill-opacity=".235294"/></svg>

<?xml version="1.0" encoding="UTF-8"?>
<svg xmlns="http://www.w3.org/2000/svg" xmlns:xlink="http://www.w3.org/1999/xlink" width="48pt" height="48pt" viewBox="0 0 48 48" version="1.1">
<defs>
<radialGradient id="radial0" gradientUnits="userSpaceOnUse" cx="450.90894" cy="189.57936" fx="450.90894" fy="189.57936" r="21.166656" gradientTransform="matrix(0.000000261256,-0.117199,-0.210958,-0.000000152308,66.784728,95.392998)">
<stop offset="0" style="stop-color:rgb(0%,0%,0%);stop-opacity:0.313725;"/>
<stop offset="0.222222" style="stop-color:rgb(0%,0%,0%);stop-opacity:0.27451;"/>
<stop offset="1" style="stop-color:rgb(0%,0%,0%);stop-opacity:0;"/>
</radialGradient>
<radialGradient id="radial1" gradientUnits="userSpaceOnUse" cx="450.90894" cy="189.57936" fx="450.90894" fy="189.57936" r="21.166656" gradientTransform="matrix(-0.000000261256,0.117199,0.210958,0.000000152308,-19.155181,-11.291222)">
<stop offset="0" style="stop-color:rgb(0%,0%,0%);stop-opacity:0.313725;"/>
<stop offset="0.222222" style="stop-color:rgb(0%,0%,0%);stop-opacity:0.27451;"/>
<stop offset="1" style="stop-color:rgb(0%,0%,0%);stop-opacity:0;"/>
</radialGradient>
<radialGradient id="radial2" gradientUnits="userSpaceOnUse" cx="450.90894" cy="189.57936" fx="450.90894" fy="189.57936" r="21.166656" gradientTransform="matrix(-0.000000261256,-0.117199,0.210958,-0.000000152308,-19.155181,95.392998)">
<stop offset="0" style="stop-color:rgb(0%,0%,0%);stop-opacity:0.313725;"/>
<stop offset="0.222222" style="stop-color:rgb(0%,0%,0%);stop-opacity:0.27451;"/>
<stop offset="1" style="stop-color:rgb(0%,0%,0%);stop-opacity:0;"/>
</radialGradient>
<radialGradient id="radial3" gradientUnits="userSpaceOnUse" cx="450.90894" cy="189.57936" fx="450.90894" fy="189.57936" r="21.166656" gradientTransform="matrix(0.000000261256,0.117199,-0.210958,0.000000152308,66.784725,-11.291223)">
<stop offset="0" style="stop-color:rgb(0%,0%,0%);stop-opacity:0.313725;"/>
<stop offset="0.222222" style="stop-color:rgb(0%,0%,0%);stop-opacity:0.27451;"/>
<stop offset="1" style="stop-color:rgb(0%,0%,0%);stop-opacity:0;"/>
</radialGradient>
<linearGradient id="linear0" gradientUnits="userSpaceOnUse" x1="255.32306" y1="233.5" x2="255.32304" y2="254.66666" gradientTransform="matrix(0.0200401,0,0,0.093759,18.698079,20.158175)">
<stop offset="0" style="stop-color:rgb(0%,0%,0%);stop-opacity:0.27451;"/>
<stop offset="1" style="stop-color:rgb(0%,0%,0%);stop-opacity:0;"/>
</linearGradient>
<linearGradient id="linear1" gradientUnits="userSpaceOnUse" x1="317.5" y1="148.83333" x2="317.5" y2="43" gradientTransform="matrix(0.093759,0,0,0.093759,-19.845644,3.2894)">
<stop offset="0" style="stop-color:rgb(100%,43.921569%,26.27451%);stop-opacity:1;"/>
<stop offset="1" style="stop-color:rgb(100%,67.058824%,56.862745%);stop-opacity:1;"/>
</linearGradient>
<linearGradient id="linear2" gradientUnits="userSpaceOnUse" x1="254" y1="233.5" x2="254" y2="-168.66667" gradientTransform="matrix(0.093759,0,0,0.093759,-0.000000889869,20.158175)">
<stop offset="0" style="stop-color:rgb(55.294118%,43.137255%,38.823529%);stop-opacity:1;"/>
<stop offset="1" style="stop-color:rgb(63.137255%,53.333333%,49.803922%);stop-opacity:1;"/>
</linearGradient>
<linearGradient id="linear3" gradientUnits="userSpaceOnUse" x1="317.5" y1="148.83333" x2="317.5" y2="43" gradientTransform="matrix(0.093759,0,0,0.093759,1.984565,22.142762)">
<stop offset="0" style="stop-color:rgb(47.058824%,56.470588%,61.176471%);stop-opacity:1;"/>
<stop offset="1" style="stop-color:rgb(69.019608%,74.509804%,77.254902%);stop-opacity:1;"/>
</linearGradient>
</defs>
<g id="surface1">
<path style=" stroke:none;fill-rule:nonzero;fill:url(#radial0);" d="M 27.289062 42.050781 L 31.257812 42.050781 L 31.257812 40.066406 L 27.289062 40.066406 Z M 27.289062 42.050781 "/>
<path style=" stroke:none;fill-rule:nonzero;fill:url(#radial1);" d="M 20.339844 42.050781 L 16.371094 42.050781 L 16.371094 44.035156 L 20.339844 44.035156 Z M 20.339844 42.050781 "/>
<path style=" stroke:none;fill-rule:nonzero;fill:url(#radial2);" d="M 20.339844 42.050781 L 16.371094 42.050781 L 16.371094 40.066406 L 20.339844 40.066406 Z M 20.339844 42.050781 "/>
<path style=" stroke:none;fill-rule:nonzero;fill:url(#radial3);" d="M 27.289062 42.050781 L 31.257812 42.050781 L 31.257812 44.035156 L 27.289062 44.035156 Z M 27.289062 42.050781 "/>
<path style=" stroke:none;fill-rule:nonzero;fill:url(#linear0);" d="M 20.339844 41.554688 L 27.289062 41.554688 L 27.289062 44.035156 L 20.339844 44.035156 Z M 20.339844 41.554688 "/>
<path style=" stroke:none;fill-rule:nonzero;fill:url(#linear1);" d="M 9.921875 7.320312 C 12.664062 7.320312 14.882812 9.542969 14.882812 12.28125 C 14.882812 15.023438 12.664062 17.242188 9.921875 17.242188 C 7.183594 17.242188 4.960938 15.023438 4.960938 12.28125 C 4.960938 9.542969 7.183594 7.320312 9.921875 7.320312 Z M 9.921875 7.320312 "/>
<path style=" stroke:none;fill-rule:nonzero;fill:rgb(100%,100%,100%);fill-opacity:0.313725;" d="M 11.359375 9.363281 C 10.867188 9.363281 10.460938 9.496094 10.191406 9.851562 C 8.683594 11.867188 7.703125 10.078125 6.199219 10.628906 C 5.804688 10.703125 5.5 10.671875 5.265625 10.566406 C 5.070312 11.101562 4.960938 11.679688 4.960938 12.28125 C 4.960938 12.359375 4.964844 12.4375 4.96875 12.515625 C 5.320312 12.753906 5.628906 12.992188 5.785156 13.109375 C 7.441406 13.9375 8.214844 13.175781 9.921875 12.28125 C 11.078125 11.777344 13.066406 11.875 14.863281 11.847656 C 14.816406 11.28125 14.671875 10.742188 14.449219 10.246094 C 14.402344 10.195312 14.355469 10.144531 14.308594 10.09375 C 13.246094 9.738281 12.179688 9.363281 11.359375 9.363281 Z M 11.359375 9.363281 "/>
<path style=" stroke:none;fill-rule:nonzero;fill:rgb(12.941176%,12.941176%,12.941176%);fill-opacity:1;" d="M 9.921875 7.179688 C 7.097656 7.179688 4.820312 9.457031 4.820312 12.28125 C 4.820312 15.105469 7.097656 17.382812 9.921875 17.382812 C 12.746094 17.382812 15.023438 15.105469 15.023438 12.28125 C 15.023438 9.457031 12.746094 7.179688 9.921875 7.179688 Z M 9.921875 7.460938 C 12.597656 7.460938 14.742188 9.609375 14.742188 12.28125 C 14.742188 14.957031 12.597656 17.101562 9.921875 17.101562 C 7.25 17.101562 5.101562 14.957031 5.101562 12.28125 C 5.101562 9.609375 7.25 7.460938 9.921875 7.460938 Z M 9.921875 7.460938 "/>
<path style=" stroke:none;fill-rule:nonzero;fill:url(#linear2);" d="M 23.816406 4.34375 C 34.226562 4.34375 42.667969 12.785156 42.667969 23.199219 C 42.667969 33.609375 34.226562 42.050781 23.816406 42.050781 C 13.402344 42.050781 4.960938 33.609375 4.960938 23.199219 C 4.960938 12.785156 13.402344 4.34375 23.816406 4.34375 Z M 23.816406 4.34375 "/>
<path style=" stroke:none;fill-rule:nonzero;fill:rgb(100%,100%,100%);fill-opacity:0.313725;" d="M 13.296875 7.53125 C 10.933594 9.113281 8.953125 11.222656 7.515625 13.6875 C 8.738281 14.351562 9.921875 14.851562 10.914062 14.265625 C 12.179688 13.578125 15.832031 16.488281 16.867188 17.242188 C 20.839844 19.226562 22.6875 17.40625 26.792969 15.257812 C 29.945312 13.882812 35.664062 14.378906 40.378906 14.164062 C 39.550781 12.636719 38.515625 11.242188 37.316406 10.011719 C 33.230469 8.636719 29.144531 7.160156 27.441406 9.425781 C 23.816406 14.265625 21.46875 9.96875 17.859375 11.289062 C 14.71875 11.898438 14.058594 9.648438 13.296875 7.53125 Z M 13.296875 7.53125 "/>
<path style=" stroke:none;fill-rule:nonzero;fill:rgb(100%,100%,100%);fill-opacity:0.313725;" d="M 41.015625 30.949219 C 39.03125 31.867188 37.585938 32.269531 35.722656 32.128906 C 33.566406 32.675781 35.519531 35.113281 33.738281 35.105469 C 31.539062 35.105469 23.816406 40.066406 18.851562 37.089844 C 16.765625 36.667969 13.070312 36.0625 10.011719 36.066406 C 13.449219 39.753906 18.355469 42.050781 23.816406 42.050781 C 26.261719 42.050781 28.597656 41.589844 30.742188 40.746094 C 35.355469 38.140625 39.425781 34.492188 41.015625 30.949219 Z M 41.015625 30.949219 "/>
<path style=" stroke:none;fill-rule:nonzero;fill:rgb(100%,100%,100%);fill-opacity:0.313725;" d="M 9.957031 17.128906 C 9.648438 17.128906 9.308594 17.164062 8.929688 17.242188 C 8.269531 17.628906 8.683594 18.730469 7.9375 19.226562 C 7.625 19.746094 6.59375 18.902344 5.65625 18.085938 C 5.203125 19.710938 4.960938 21.425781 4.960938 23.199219 C 4.960938 23.917969 5 24.628906 5.078125 25.328125 C 7.089844 26.109375 9.265625 28.140625 10.914062 27.167969 C 12.179688 26.476562 15.832031 29.386719 16.867188 30.144531 C 20.839844 32.128906 22.6875 30.304688 26.792969 28.160156 C 30.386719 26.589844 37.328125 27.453125 42.304688 26.921875 C 42.542969 25.71875 42.667969 24.472656 42.667969 23.199219 C 42.667969 21.804688 42.519531 20.449219 42.234375 19.144531 C 37.339844 18.273438 34.015625 20.1875 31.753906 23.199219 C 28.128906 28.039062 21.46875 22.867188 17.859375 24.191406 C 12.199219 25.285156 14.59375 17.113281 9.957031 17.128906 Z M 9.957031 17.128906 "/>
<path style=" stroke:none;fill-rule:nonzero;fill:rgb(100%,100%,100%);fill-opacity:0.392157;" d="M 23.816406 4.34375 C 13.371094 4.34375 4.960938 12.753906 4.960938 23.199219 C 4.960938 23.320312 4.964844 23.441406 4.964844 23.5625 C 5.160156 13.285156 13.492188 5.074219 23.816406 5.074219 C 34.136719 5.074219 42.472656 13.285156 42.664062 23.5625 C 42.667969 23.441406 42.667969 23.320312 42.667969 23.199219 C 42.667969 12.753906 34.257812 4.34375 23.816406 4.34375 Z M 23.816406 4.34375 "/>
<path style=" stroke:none;fill-rule:nonzero;fill:rgb(0%,0%,0%);fill-opacity:0.235294;" d="M 23.816406 42.050781 C 13.371094 42.050781 4.960938 33.640625 4.960938 23.199219 C 4.960938 23.074219 4.964844 22.953125 4.964844 22.832031 C 5.160156 33.109375 13.492188 41.320312 23.816406 41.320312 C 34.136719 41.320312 42.472656 33.109375 42.664062 22.832031 C 42.667969 22.953125 42.667969 23.074219 42.667969 23.199219 C 42.667969 33.640625 34.257812 42.050781 23.816406 42.050781 Z M 23.816406 42.050781 "/>
<path style=" stroke:none;fill-rule:nonzero;fill:rgb(12.941176%,12.941176%,12.941176%);fill-opacity:1;" d="M 23.816406 4.203125 C 13.292969 4.203125 4.820312 12.675781 4.820312 23.199219 C 4.820312 33.71875 13.292969 42.191406 23.816406 42.191406 C 34.335938 42.191406 42.808594 33.71875 42.808594 23.199219 C 42.808594 12.675781 34.335938 4.203125 23.816406 4.203125 Z M 23.816406 4.484375 C 34.183594 4.484375 42.527344 12.828125 42.527344 23.199219 C 42.527344 33.566406 34.183594 41.910156 23.816406 41.910156 C 13.445312 41.910156 5.101562 33.566406 5.101562 23.199219 C 5.101562 12.828125 13.445312 4.484375 23.816406 4.484375 Z M 23.816406 4.484375 "/>
<path style=" stroke:none;fill-rule:nonzero;fill:url(#linear3);" d="M 31.753906 26.175781 C 34.492188 26.175781 36.714844 28.394531 36.714844 31.136719 C 36.714844 33.875 34.492188 36.097656 31.753906 36.097656 C 29.011719 36.097656 26.792969 33.875 26.792969 31.136719 C 26.792969 28.394531 29.011719 26.175781 31.753906 26.175781 Z M 31.753906 26.175781 "/>
<path style=" stroke:none;fill-rule:nonzero;fill:rgb(100%,100%,100%);fill-opacity:0.313725;" d="M 33.1875 28.214844 C 32.695312 28.214844 32.289062 28.351562 32.023438 28.703125 C 30.511719 30.722656 29.535156 28.929688 28.03125 29.480469 C 27.632812 29.558594 27.332031 29.527344 27.09375 29.417969 C 26.898438 29.953125 26.792969 30.53125 26.792969 31.136719 C 26.792969 31.214844 26.792969 31.292969 26.796875 31.367188 C 27.148438 31.609375 27.457031 31.847656 27.617188 31.964844 C 29.269531 32.789062 30.042969 32.03125 31.753906 31.136719 C 32.910156 30.628906 34.894531 30.730469 36.695312 30.699219 C 36.644531 30.132812 36.503906 29.59375 36.28125 29.097656 C 36.234375 29.046875 36.1875 28.996094 36.140625 28.949219 C 35.074219 28.589844 34.011719 28.214844 33.1875 28.214844 Z M 33.1875 28.214844 "/>
<path style=" stroke:none;fill-rule:nonzero;fill:rgb(100%,100%,100%);fill-opacity:0.392157;" d="M 31.753906 26.175781 C 29.003906 26.175781 26.792969 28.386719 26.792969 31.136719 C 26.792969 31.199219 26.792969 31.261719 26.796875 31.320312 C 26.894531 28.660156 29.066406 26.546875 31.753906 26.546875 C 34.4375 26.546875 36.613281 28.660156 36.710938 31.320312 C 36.714844 31.261719 36.714844 31.199219 36.714844 31.136719 C 36.714844 28.386719 34.5 26.175781 31.753906 26.175781 Z M 31.753906 26.175781 "/>
<path style=" stroke:none;fill-rule:nonzero;fill:rgb(12.941176%,12.941176%,12.941176%);fill-opacity:1;" d="M 31.753906 26.035156 C 28.929688 26.035156 26.652344 28.3125 26.652344 31.136719 C 26.652344 33.960938 28.929688 36.238281 31.753906 36.238281 C 34.578125 36.238281 36.855469 33.960938 36.855469 31.136719 C 36.855469 28.3125 34.578125 26.035156 31.753906 26.035156 Z M 31.753906 26.316406 C 34.425781 26.316406 36.574219 28.460938 36.574219 31.136719 C 36.574219 33.808594 34.425781 35.957031 31.753906 35.957031 C 29.078125 35.957031 26.933594 33.808594 26.933594 31.136719 C 26.933594 28.460938 29.078125 26.316406 31.753906 26.316406 Z M 31.753906 26.316406 "/>
<path style=" stroke:none;fill-rule:nonzero;fill:rgb(0%,0%,0%);fill-opacity:0.235294;" d="M 26.804688 31.507812 C 26.796875 31.628906 26.792969 31.753906 26.792969 31.878906 C 26.792969 34.628906 29.003906 36.839844 31.753906 36.839844 C 34.5 36.839844 36.714844 34.628906 36.714844 31.878906 C 36.714844 31.753906 36.710938 31.628906 36.699219 31.507812 C 36.511719 34.082031 34.375 36.097656 31.753906 36.097656 C 29.128906 36.097656 26.996094 34.082031 26.804688 31.507812 Z M 26.804688 31.507812 "/>
</g>
</svg>
